src/lib/images/svgs/icon-keyboard.svg

<?xml version="1.0" encoding="UTF-8"?> <svg xmlns="http://www.w3.org/2000/svg" xmlns:xlink="http://www.w3.org/1999/xlink" width="64px" height="64px" viewBox="0 0 64 64" version="1.1"> <g id="surface1"> <path style=" stroke:none;fill-rule:nonzero;fill:rgb(93.72549%,26.666667%,26.666667%);fill-opacity:1;" d="M 54.714844 46.890625 L 9.28125 46.890625 C 8.007812 46.890625 6.96875 45.851562 6.96875 44.578125 L 6.96875 26.867188 C 6.96875 25.589844 8.007812 24.550781 9.28125 24.550781 L 54.714844 24.550781 C 55.992188 24.550781 57.03125 25.589844 57.03125 26.867188 L 57.03125 44.574219 C 57.03125 45.851562 55.992188 46.890625 54.714844 46.890625 Z M 9.28125 25.691406 C 8.632812 25.691406 8.105469 26.21875 8.105469 26.867188 L 8.105469 44.574219 C 8.105469 45.222656 8.632812 45.753906 9.28125 45.753906 L 54.714844 45.753906 C 55.363281 45.753906 55.894531 45.222656 55.894531 44.574219 L 55.894531 26.867188 C 55.894531 26.21875 55.363281 25.691406 54.714844 25.691406 Z M 9.28125 25.691406 "/> <path style=" stroke:none;fill-rule:nonzero;fill:rgb(93.72549%,26.666667%,26.666667%);fill-opacity:1;" d="M 46.9375 25.691406 C 46.625 25.691406 46.367188 25.433594 46.367188 25.121094 L 46.367188 22.8125 C 46.367188 21.589844 45.375 20.59375 44.152344 20.59375 L 14.050781 20.59375 C 12.199219 20.59375 10.695312 19.089844 10.695312 17.238281 C 10.695312 15.386719 12.199219 13.882812 14.050781 13.882812 L 44.152344 13.882812 C 45.375 13.882812 46.367188 12.886719 46.367188 11.664062 L 46.367188 9.902344 C 46.367188 9.585938 46.625 9.332031 46.9375 9.332031 C 47.25 9.332031 47.507812 9.585938 47.507812 9.902344 L 47.507812 11.667969 C 47.507812 13.519531 46 15.023438 44.152344 15.023438 L 14.050781 15.023438 C 12.824219 15.023438 11.832031 16.015625 11.832031 17.242188 C 11.832031 18.464844 12.828125 19.457031 14.050781 19.457031 L 44.152344 19.457031 C 46 19.457031 47.507812 20.960938 47.507812 22.8125 L 47.507812 25.121094 C 47.507812 25.433594 47.25 25.691406 46.9375 25.691406 Z M 46.9375 25.691406 "/> <path style=" stroke:none;fill-rule:nonzero;fill:rgb(93.72549%,26.666667%,26.666667%);fill-opacity:1;" d="M 49.210938 10.46875 L 44.664062 10.46875 C 44.351562 10.46875 44.09375 10.214844 44.09375 9.902344 L 44.09375 6.953125 C 44.09375 6.640625 44.351562 6.386719 44.664062 6.386719 L 49.210938 6.386719 C 49.527344 6.386719 49.78125 6.640625 49.78125 6.953125 L 49.78125 9.902344 C 49.78125 10.214844 49.527344 10.46875 49.210938 10.46875 Z M 45.234375 9.332031 L 48.644531 9.332031 L 48.644531 7.523438 L 45.234375 7.523438 Z M 45.234375 9.332031 "/> <path style=" stroke:none;fill-rule:nonzero;fill:rgb(93.72549%,26.666667%,26.666667%);fill-opacity:1;" d="M 48.203125 7.523438 L 45.675781 7.523438 C 45.359375 7.523438 45.105469 7.265625 45.105469 6.953125 L 45.105469 4.878906 C 45.105469 4.5625 45.359375 4.308594 45.675781 4.308594 L 48.203125 4.308594 C 48.515625 4.308594 48.769531 4.5625 48.769531 4.878906 L 48.769531 6.953125 C 48.769531 7.265625 48.515625 7.523438 48.203125 7.523438 Z M 46.242188 6.382812 L 47.632812 6.382812 L 47.632812 5.445312 L 46.242188 5.445312 Z M 46.242188 6.382812 "/> <path style=" stroke:none;fill-rule:nonzero;fill:rgb(93.72549%,26.666667%,26.666667%);fill-opacity:1;" d="M 41.472656 33.84375 L 10.792969 33.84375 C 10.480469 33.84375 10.226562 33.585938 10.226562 33.273438 C 10.226562 32.960938 10.480469 32.703125 10.792969 32.703125 L 41.472656 32.703125 C 41.785156 32.703125 42.042969 32.960938 42.042969 33.273438 C 42.042969 33.585938 41.789062 33.84375 41.472656 33.84375 Z M 41.472656 33.84375 "/> <path style=" stroke:none;fill-rule:nonzero;fill:rgb(93.72549%,26.666667%,26.666667%);fill-opacity:1;" d="M 36.359375 43.636719 C 36.046875 43.636719 35.792969 43.378906 35.792969 43.066406 L 35.792969 28.378906 C 35.792969 28.0625 36.046875 27.808594 36.359375 27.808594 C 36.675781 27.808594 36.929688 28.0625 36.929688 28.378906 L 36.929688 43.066406 C 36.929688 43.378906 36.675781 43.636719 36.359375 43.636719 Z M 36.359375 43.636719 "/> <path style=" stroke:none;fill-rule:nonzero;fill:rgb(93.72549%,26.666667%,26.666667%);fill-opacity:1;" d="M 31.246094 43.636719 C 30.933594 43.636719 30.675781 43.378906 30.675781 43.066406 L 30.675781 28.378906 C 30.675781 28.0625 30.933594 27.808594 31.246094 27.808594 C 31.5625 27.808594 31.816406 28.0625 31.816406 28.378906 L 31.816406 43.066406 C 31.816406 43.378906 31.5625 43.636719 31.246094 43.636719 Z M 31.246094 43.636719 "/> <path style=" stroke:none;fill-rule:nonzero;fill:rgb(93.72549%,26.666667%,26.666667%);fill-opacity:1;" d="M 26.132812 38.738281 C 25.820312 38.738281 25.566406 38.484375 25.566406 38.171875 L 25.566406 28.378906 C 25.566406 28.0625 25.820312 27.808594 26.132812 27.808594 C 26.449219 27.808594 26.703125 28.0625 26.703125 28.378906 L 26.703125 38.171875 C 26.703125 38.484375 26.449219 38.738281 26.132812 38.738281 Z M 26.132812 38.738281 "/> <path style=" stroke:none;fill-rule:nonzero;fill:rgb(93.72549%,26.666667%,26.666667%);fill-opacity:1;" d="M 21.019531 38.738281 C 20.707031 38.738281 20.453125 38.484375 20.453125 38.171875 L 20.453125 28.378906 C 20.453125 28.0625 20.707031 27.808594 21.019531 27.808594 C 21.335938 27.808594 21.589844 28.0625 21.589844 28.378906 L 21.589844 38.171875 C 21.589844 38.484375 21.335938 38.738281 21.019531 38.738281 Z M 21.019531 38.738281 "/> <path style=" stroke:none;fill-rule:nonzero;fill:rgb(93.72549%,26.666667%,26.666667%);fill-opacity:1;" d="M 15.90625 43.636719 C 15.59375 43.636719 15.335938 43.378906 15.335938 43.066406 L 15.335938 28.378906 C 15.335938 28.0625 15.59375 27.808594 15.90625 27.808594 C 16.21875 27.808594 16.476562 28.0625 16.476562 28.378906 L 16.476562 43.066406 C 16.476562 43.378906 16.222656 43.636719 15.90625 43.636719 Z M 15.90625 43.636719 "/> <path style=" stroke:none;fill-rule:nonzero;fill:rgb(93.72549%,26.666667%,26.666667%);fill-opacity:1;" d="M 36.359375 38.738281 L 10.792969 38.738281 C 10.480469 38.738281 10.226562 38.484375 10.226562 38.171875 C 10.226562 37.855469 10.480469 37.601562 10.792969 37.601562 L 36.359375 37.601562 C 36.671875 37.601562 36.929688 37.855469 36.929688 38.171875 C 36.929688 38.484375 36.671875 38.738281 36.359375 38.738281 Z M 36.359375 38.738281 "/> <path style=" stroke:none;fill-rule:nonzero;fill:rgb(93.72549%,26.666667%,26.666667%);fill-opacity:1;" d="M 41.472656 43.636719 L 10.792969 43.636719 C 10.480469 43.636719 10.226562 43.378906 10.226562 43.066406 L 10.226562 28.378906 C 10.226562 28.0625 10.480469 27.808594 10.792969 27.808594 L 41.472656 27.808594 C 41.785156 27.808594 42.042969 28.0625 42.042969 28.378906 L 42.042969 43.066406 C 42.042969 43.378906 41.789062 43.636719 41.472656 43.636719 Z M 11.363281 42.496094 L 40.902344 42.496094 L 40.902344 28.945312 L 11.363281 28.945312 Z M 11.363281 42.496094 "/> <path style=" stroke:none;fill-rule:nonzero;fill:rgb(93.72549%,26.666667%,26.666667%);fill-opacity:1;" d="M 53.097656 43.636719 L 45.046875 43.636719 C 44.734375 43.636719 44.476562 43.378906 44.476562 43.066406 L 44.476562 28.378906 C 44.476562 28.0625 44.734375 27.808594 45.046875 27.808594 L 53.097656 27.808594 C 53.414062 27.808594 53.667969 28.0625 53.667969 28.378906 L 53.667969 43.066406 C 53.667969 43.378906 53.414062 43.636719 53.097656 43.636719 Z M 45.617188 42.496094 L 52.53125 42.496094 L 52.53125 28.945312 L 45.617188 28.945312 Z M 45.617188 42.496094 "/> <path style=" stroke:none;fill-rule:nonzero;fill:rgb(93.72549%,26.666667%,26.666667%);fill-opacity:1;" d="M 49.074219 43.636719 C 48.757812 43.636719 48.503906 43.378906 48.503906 43.066406 L 48.503906 28.378906 C 48.503906 28.0625 48.757812 27.808594 49.074219 27.808594 C 49.386719 27.808594 49.640625 28.0625 49.640625 28.378906 L 49.640625 43.066406 C 49.640625 43.378906 49.386719 43.636719 49.074219 43.636719 Z M 49.074219 43.636719 "/> <path style=" stroke:none;fill-rule:nonzero;fill:rgb(93.72549%,26.666667%,26.666667%);fill-opacity:1;" d="M 53.097656 33.84375 L 45.046875 33.84375 C 44.734375 33.84375 44.476562 33.585938 44.476562 33.273438 C 44.476562 32.960938 44.734375 32.703125 45.046875 32.703125 L 53.097656 32.703125 C 53.414062 32.703125 53.667969 32.960938 53.667969 33.273438 C 53.667969 33.585938 53.414062 33.84375 53.097656 33.84375 Z M 53.097656 33.84375 "/> <path style=" stroke:none;fill-rule:nonzero;fill:rgb(93.72549%,26.666667%,26.666667%);fill-opacity:1;" d="M 53.097656 38.738281 L 45.046875 38.738281 C 44.734375 38.738281 44.476562 38.484375 44.476562 38.171875 C 44.476562 37.855469 44.734375 37.601562 45.046875 37.601562 L 53.097656 37.601562 C 53.414062 37.601562 53.667969 37.855469 53.667969 38.171875 C 53.667969 38.484375 53.414062 38.738281 53.097656 38.738281 Z M 53.097656 38.738281 "/> </g> </svg>

<svg xmlns="http://www.w3.org/2000/svg" width="64" height="64"><path d="M54.715 46.89H9.28a2.317 2.317 0 0 1-2.312-2.312v-17.71A2.318 2.318 0 0 1 9.28 24.55h45.434a2.319 2.319 0 0 1 2.316 2.316v17.707a2.319 2.319 0 0 1-2.316 2.317ZM9.28 25.692c-.648 0-1.176.528-1.176 1.176v17.707c0 .649.528 1.18 1.176 1.18h45.434c.648 0 1.18-.531 1.18-1.18V26.867a1.18 1.18 0 0 0-1.18-1.176Zm0 0" style="stroke:none;fill-rule:nonzero;fill:#ef4444;fill-opacity:1"/><path d="M46.938 25.691a.574.574 0 0 1-.57-.57v-2.308a2.219 2.219 0 0 0-2.216-2.22H14.051a3.358 3.358 0 0 1-3.356-3.355 3.358 3.358 0 0 1 3.356-3.355h30.101a2.219 2.219 0 0 0 2.215-2.219V9.902a.571.571 0 0 1 1.14 0v1.766a3.36 3.36 0 0 1-3.355 3.355H14.051a2.217 2.217 0 1 0 0 4.434h30.101a3.36 3.36 0 0 1 3.356 3.355v2.31c0 .312-.258.57-.57.57Zm0 0" style="stroke:none;fill-rule:nonzero;fill:#ef4444;fill-opacity:1"/><path d="M49.21 10.469h-4.546a.57.57 0 0 1-.57-.567V6.953a.57.57 0 0 1 .57-.566h4.547c.316 0 .57.254.57.566v2.95a.568.568 0 0 1-.57.566Zm-3.976-1.137h3.41V7.523h-3.41Zm0 0" style="stroke:none;fill-rule:nonzero;fill:#ef4444;fill-opacity:1"/><path d="M48.203 7.523h-2.527a.571.571 0 0 1-.57-.57V4.88c0-.316.253-.57.57-.57h2.527c.313 0 .567.253.567.57v2.074a.57.57 0 0 1-.567.57Zm-1.96-1.14h1.39v-.938h-1.39ZM41.473 33.844h-30.68a.57.57 0 0 1 0-1.14h30.68a.571.571 0 0 1 0 1.14Zm0 0" style="stroke:none;fill-rule:nonzero;fill:#ef4444;fill-opacity:1"/><path d="M36.36 43.637a.57.57 0 0 1-.567-.57V28.378a.568.568 0 1 1 1.137 0v14.687c0 .313-.254.57-.57.57ZM31.246 43.637a.574.574 0 0 1-.57-.57V28.378a.571.571 0 0 1 1.14 0v14.687c0 .313-.253.57-.57.57ZM26.133 38.738a.567.567 0 0 1-.567-.566v-9.793a.568.568 0 1 1 1.137 0v9.793a.568.568 0 0 1-.57.566ZM21.02 38.738a.567.567 0 0 1-.567-.566v-9.793a.568.568 0 1 1 1.137 0v9.793a.568.568 0 0 1-.57.566ZM15.906 43.637a.574.574 0 0 1-.57-.57V28.378a.571.571 0 0 1 1.14 0v14.687c0 .313-.253.57-.57.57Zm0 0" style="stroke:none;fill-rule:nonzero;fill:#ef4444;fill-opacity:1"/><path d="M36.36 38.738H10.792a.568.568 0 0 1 0-1.137h25.566c.313 0 .57.254.57.57a.57.57 0 0 1-.57.567Zm0 0" style="stroke:none;fill-rule:nonzero;fill:#ef4444;fill-opacity:1"/><path d="M41.473 43.637h-30.68a.57.57 0 0 1-.566-.57V28.378c0-.317.253-.57.566-.57h30.68c.312 0 .57.253.57.57v14.687c0 .313-.254.57-.57.57Zm-30.11-1.14h29.54V28.944h-29.54ZM53.098 43.637h-8.051a.574.574 0 0 1-.57-.57V28.378c0-.317.257-.57.57-.57h8.05c.317 0 .571.253.571.57v14.687c0 .313-.254.57-.57.57Zm-7.48-1.14h6.913V28.944h-6.914Zm0 0" style="stroke:none;fill-rule:nonzero;fill:#ef4444;fill-opacity:1"/><path d="M49.074 43.637a.571.571 0 0 1-.57-.57V28.378a.568.568 0 1 1 1.137 0v14.687a.57.57 0 0 1-.567.57Zm0 0" style="stroke:none;fill-rule:nonzero;fill:#ef4444;fill-opacity:1"/><path d="M53.098 33.844h-8.051a.574.574 0 0 1-.57-.57c0-.313.257-.57.57-.57h8.05a.571.571 0 0 1 0 1.14ZM53.098 38.738h-8.051a.57.57 0 0 1-.57-.566c0-.317.257-.57.57-.57h8.05a.568.568 0 1 1 0 1.136Zm0 0" style="stroke:none;fill-rule:nonzero;fill:#ef4444;fill-opacity:1"/></svg>
